img/tile1.svg

<svg xmlns="http://www.w3.org/2000/svg" width="140.202" height="140.396" viewBox="0 0 140.202 140.396"><path d="M17.115 53.135c7.174-21.909 27.984-37.74 52.292-37.74l.272.001v-14.396c-29.473 0-56.575 18.737-66.022 47.815l.32.138-.011-.138 13.149 4.32z" stroke="#F16823" stroke-width="2" stroke-miterlimit="10" fill="none"/><path d="M69.679 1v14.396c30.701.033 54.531 24.556 54.531 54.802 0 30.267-24.642 54.803-54.909 54.803s-54.856-24.536-54.856-54.803c0-5.919.923-11.614 2.659-16.954l-13.219-4.291c-2.324 7.213-2.885 13.651-2.885 21.245 0 38.217 30.844 69.198 69.061 69.198 38.216 0 69.141-30.981 69.141-69.198 0-38.217-31.454-69.198-69.523-69.198" fill="#F16823"/><path d="M69.679 1v14.396c30.701.033 54.531 24.556 54.531 54.802 0 30.267-24.642 54.803-54.909 54.803s-54.856-24.536-54.856-54.803c0-5.919.923-11.614 2.659-16.954l-13.219-4.291c-2.324 7.213-2.885 13.651-2.885 21.245 0 38.217 30.844 69.198 69.061 69.198 38.216 0 69.141-30.981 69.141-69.198 0-38.217-31.454-69.198-69.523-69.198z" stroke="#F16823" stroke-width="2" stroke-miterlimit="10" fill="none"/><path d="M17.115 53.135l-13.202-4.32-.041.138 13.206 4.291.037-.109"/><path d="M17.115 53.135l-13.202-4.32-.041.138 13.206 4.291.037-.109z" stroke="#F16823" stroke-miterlimit="10" fill="none"/><g><rect x="57.819" y="45.81" width="24.201" height="44.268" stroke="#fff" stroke-miterlimit="10" fill="none"/><path d="M86.103 95.487c0 1.705-1.395 3.101-3.101 3.101h-26.165c-1.705 0-3.101-1.396-3.101-3.101v-51.578c0-1.706 1.396-3.101 3.101-3.101h26.164c1.706 0 3.101 1.395 3.101 3.101v51.578z" stroke="#fff" stroke-width="2" stroke-miterlimit="10" fill="none"/><circle cx="69.919" cy="94.139" r="1.779" stroke="#fff" stroke-miterlimit="10" fill="none"/><line x1="67.835" y1="43.5" x2="62.835" y2="43.5" stroke="#fff" stroke-miterlimit="10" fill="none"/><path d="M64.819 66.549c1.291-1.337 3.102-2.169 5.108-2.169 2.205 0 4.175 1.006 5.477 2.583" stroke="#F16823" stroke-miterlimit="10" fill="none"/><path d="M66.426 68.624c.828-1.015 2.089-1.662 3.501-1.662 1.403 0 2.657.64 3.486 1.644" stroke="#F16823" stroke-miterlimit="10" fill="none"/><path d="M68.339 70.541c.321-.542.912-.906 1.588-.906.656 0 1.232.343 1.559.86" stroke="#F16823" stroke-miterlimit="10" fill="none"/><circle cx="69.92" cy="67.289" r="7.552" stroke="#F16823" stroke-miterlimit="10" fill="none"/><path d="M69.52 44.25c.965 0 .967-1.5 0-1.5-.965 0-.967 1.5 0 1.5" fill="#fff"/></g></svg>

<?xml version="1.0" encoding="iso-8859-1"?>
 <!-- Generator: Adobe Illustrator 16.0.4, SVG Export Plug-In . SVG Version: 6.00 Build 0)  -->
 <!DOCTYPE svg PUBLIC "-//W3C//DTD SVG 1.1//EN" "http://www.w3.org/Graphics/SVG/1.1/DTD/svg11.dtd">
 <svg version="1.1" id="Layer_1" xmlns="http://www.w3.org/2000/svg" xmlns:xlink="http://www.w3.org/1999/xlink" x="0px" y="0px"
 	 width="140.202px" height="140.396px" viewBox="0 0 140.202 140.396" style="enable-background:new 0 0 140.202 140.396;"
 	 xml:space="preserve">
 <path style="fill:none;stroke:#F16823;stroke-width:2;stroke-miterlimit:10;" d="M17.115,53.135
 	c7.174-21.909,27.984-37.74,52.292-37.74c0.02,0,0.272,0.001,0.272,0.001V1C40.206,1,13.104,19.737,3.657,48.815l0.32,0.138
 	c0.015-0.047-0.026-0.092-0.011-0.138L17.115,53.135z"/>
 <path style="fill:#F16823;" d="M69.679,1v14.396c30.701,0.033,54.531,24.556,54.531,54.802c0,30.267-24.642,54.803-54.909,54.803
 	c-30.267,0-54.856-24.536-54.856-54.803c0-5.919,0.923-11.614,2.659-16.954L3.885,48.953C1.561,56.166,1,62.604,1,70.198
 	c0,38.217,30.844,69.198,69.061,69.198c38.216,0,69.141-30.981,69.141-69.198C139.202,31.981,107.748,1,69.679,1"/>
 <path style="fill:none;stroke:#F16823;stroke-width:2;stroke-miterlimit:10;" d="M69.679,1v14.396
 	c30.701,0.033,54.531,24.556,54.531,54.802c0,30.267-24.642,54.803-54.909,54.803c-30.267,0-54.856-24.536-54.856-54.803
 	c0-5.919,0.923-11.614,2.659-16.954L3.885,48.953C1.561,56.166,1,62.604,1,70.198c0,38.217,30.844,69.198,69.061,69.198
 	c38.216,0,69.141-30.981,69.141-69.198C139.202,31.981,107.748,1,69.679,1z"/>
 <path d="M17.115,53.135l-13.202-4.32c-0.015,0.046-0.026,0.091-0.041,0.138l13.206,4.291C17.09,53.208,17.103,53.171,17.115,53.135"
 	/>
 <path style="fill:none;stroke:#F16823;stroke-miterlimit:10;" d="M17.115,53.135l-13.202-4.32c-0.015,0.046-0.026,0.091-0.041,0.138
 	l13.206,4.291C17.09,53.208,17.103,53.171,17.115,53.135z"/>

 <!-- group phone svgs -->
 <g id="phone">
 	<rect x="57.819" y="45.81" style="fill:none;stroke:#FFFFFF;stroke-miterlimit:10;" width="24.201" height="44.268"/>
 	<path style="fill:none;stroke:#FFFFFF;stroke-width:2;stroke-miterlimit:10;" d="M86.103,95.487c0,1.705-1.395,3.101-3.101,3.101
 		H56.837c-1.705,0-3.101-1.396-3.101-3.101V43.909c0-1.706,1.396-3.101,3.101-3.101h26.164c1.706,0,3.101,1.395,3.101,3.101V95.487z"
 		/>
 	<circle style="fill:none;stroke:#FFFFFF;stroke-miterlimit:10;" cx="69.919" cy="94.139" r="1.779"/>
 	<line style="fill:none;stroke:#FFFFFF;stroke-miterlimit:10;" x1="67.835" y1="43.5" x2="62.835" y2="43.5"/>
 	<path style="fill:none;stroke:#F16823;stroke-miterlimit:10;" d="M64.819,66.549c1.291-1.337,3.102-2.169,5.108-2.169
 		c2.205,0,4.175,1.006,5.477,2.583"/>
 	<path style="fill:none;stroke:#F16823;stroke-miterlimit:10;" d="M66.426,68.624c0.828-1.015,2.089-1.662,3.501-1.662
 		c1.403,0,2.657,0.64,3.486,1.644"/>
 	<path style="fill:none;stroke:#F16823;stroke-miterlimit:10;" d="M68.339,70.541c0.321-0.542,0.912-0.906,1.588-0.906
 		c0.656,0,1.232,0.343,1.559,0.86"/>
 	<circle style="fill:none;stroke:#F16823;stroke-miterlimit:10;" cx="69.92" cy="67.289" r="7.552"/>
 	<path style="fill:#FFFFFF;" d="M69.52,44.25c0.965,0,0.967-1.5,0-1.5C68.555,42.75,68.553,44.25,69.52,44.25"/>
 </g>

</svg>
